X:35
T: mazurka de salou
C: B. Letron
M: 3/4
L: 1/8
R: mazurka
K: Emin
G GB|:e2 eg eB|e3 e ee|d2-de dc|B4 AB|
|1 cB AB ce|d2-de ed|dc cB BA|B2-BG GB:||
|2 cB AB ce|d2-de dc|Bc BA GF|E4 z2||
|:Ec cB BA|Dc cB BA|Dc cA FA|GB Bc cd|
|Ec cB BA|Dc cB BA|Dc cA FA|1 G2 G4 z2:||2 G2 zG GB||
